X:1
T:Title
%%score { 1 | ( 2 3 ) }
L:1/8
Q:1/4=78
M:6/8
K:F
V:1 treble nm="Grand Piano"
V:2 bass 
V:3 bass 
V:1
 A>GF [EG][DF][EG] | A3 c3 | c>BA [EG][DF][EG] | A6 | D>[DE][DF] [DG][DF]D | C3 F3 | %6
w: S.~M.~Bixby * * * * *||||||
 A>GF [EG][DF][EG] | F6 | c>BA AGF | A3 c3 | c>BA [EG][DF][EG] | A6 | AA>A [B,EG][B,EG][B,EG] | %13
w: |||||||
 [A,F]3 [A,_EF]3 | [DF][DF]>[DB] AA>G | F6 | A>GF [EG]3 | [EG][EA][EB] A3 | %18
w: |||||
[M:7/8] c<cc [Dd]3 [DF] |[M:3/4] [CFA][CEA]- [CEA]/[B,EG]/ [A,F]3 |] %20
w: ||
V:2
 [F,CF]>[F,B,F][F,A,] [C,C][C,C][C,C] | [F,CF]3 [F,A,F]3 | %2
 [A,CF]>[G,CE][F,CF][K:bass] [C,C][C,C][C,C] | [F,CF]6 | %4
 [B,,B,]>[B,,B,][B,,B,] [B,,B,][B,,B,][B,,B,] | [F,A,]3 [F,A,C]3 | %6
 [F,C]>[F,B,C][F,A,C] [C,C][C,C][C,B,] | [F,A,]6 | [F,A,F]>[F,DF][F,CF] [F,CF][F,B,F][F,A,] | %9
 [F,CF]3 [F,A,F]3 | [A,CF]>[G,CE][F,CF][K:bass] [C,C][C,C][C,C] | [F,CF]6 | %12
 [F,CF][F,CF]>[F,CF] C,C,C, | D,3 C,3 | [B,,B,][B,,B,]>[B,,F,] [C,F,C][C,F,C]>[C,B,C] | [F,A,C]6 | %16
 [F,C]>[F,B,C][F,A,C] [C,C]3 | [C,C][C,C][C,C] [F,CF]3 | %18
[M:7/8] [F,A,F]<[F,A,F][F,A,_E] [B,,B,]3 z/ G/ |[M:3/4] C,C,- C,/C,/ F,3 |] %20
V:3
 x6 | x6 | x3[K:bass] x3 | x6 | x6 | x6 | x6 | x6 | x6 | x6 | x3[K:bass] x3 | x6 | x6 | x6 | x6 | %15
 x6 | x6 | x6 |[M:7/8] z z z z z2 B,, |[M:3/4] x6 |] %20

